X:1
T:Title
%%score ( 1 2 ) { 3 | 4 }
L:1/8
Q:1/4=92
M:4/4
K:Eb
V:1 treble nm="Grand Piano, Soprano"
V:2 treble 
V:3 treble nm="Choir Pad, Bass"
V:4 bass 
V:1
 [EG][FA][GB][GB] [_G=A][=GB][_Ac][GB] | [EG]E[EG][EG] [EA][Ec] [EB]2 | %2
w: By~Clarence~Board~Strouse * * * * * * *||
 [EG][EG][DF][DF] [EG][EG][F=A][FA] | [EG][EF] [DB]6 | [AB][AB][Ge][GB] [Bd][Ac][Ac][GB] | %5
w: |||
 [EG][FG][Ec][Ec] [EG][EG] [DB]2 | [B,E][EG][GB][GB] [Be][Ac] [GB]2 | [EG]2 F2- [DF]2 [B,E]2 | %8
w: |||
 [EG]2 [GB]>[GB] [GB]>[EG] [GB]2- | [GB][EG] [GB]4 [GB]2- | [GB][GB] [Ac]>[Ac] [Ac]>[Ad] [Ae]2- | %11
w: |||
 [Ae][Ac] [Ae]4 [Ge]2 | [GB]2 [Ge][Ge] [Ge][Ge] [Fd]2- | [Fd][FG][Ec][Ec] [Ec][Ec] [EB]2 | %14
w: |||
 E[EF][EG][EG] [EB][Ec] [EB]2 | [EG]2 [DF]4 [B,E]2- | [B,E]6 z2 |] %17
w: |||
V:2
 x8 | x8 | x8 | x8 | x8 | x8 | x8 | z2 E2 z4 | x8 | x8 | x8 | x8 | x8 | x8 | x8 | x8 | x8 |] %17
V:3
 B,B,EE EEEE | B,G,B,B, A,A, G,2 | B,B,B,B, B,B,CC | B,=A, B,6 | B,B,B,[K:treble]E EEEE | %5
 B,=B,CC C[K:bass]E, F,2 | G,B,E[K:treble]E EE E2 | B,2[K:bass] A,4 G,2 | %8
 B,2 E>E[K:treble] E>B, E2- | EB, E4 E2- | EE E>E E>D C2- | CE C4[K:bass] B,2 | E2 B,B, CC =B,2- | %13
 B,=B,CA, A,A, G,2 | B,CB,B, G,G, G,2 | B,2 A,4 G,2- | G,6 z2 |] %17
V:4
 E,E,E,E, E,E,E,E, | E,E,E,_D, C,A,, E,2 | E,E,A,A, G,G,F,F, | F,F, B,,6 | z2 E,E, A,A,E,E, | %5
 E,D,C,C, C,C, B,,2 | E,E,E,E, G,,A,, B,,2 | B,,2 B,,4 E,2 | E,2 E,>E, E,>E, E,2- | E,E, E,4 E,2- | %10
 E,E, A,>A, A,>A, A,2- | A,A, A,4 E,2 | E,2 E,E, C,C, G,2- | G,G, .A,2 A,,C, E,2 | %14
 G,,A,,B,,B,, B,,B,, B,,2 | B,,2 A,,4 E,2- | E,6 z2 |] %17

